icons/waves-arrow-down.svg

<svg
  xmlns="http://www.w3.org/2000/svg"
  width="24"
  height="24"
  viewBox="0 0 24 24"
  fill="none"
  stroke="currentColor"
  stroke-width="2"
  stroke-linecap="round"
  stroke-linejoin="round"
>
  <path d="M12 10V2" />
  <path d="m16 6-4 4-4-4" />
  <path
    d="M2 15c.6.5 1.2 1 2.5 1 2.5 0 2.5-2 5-2 2.6 0 2.4 2 5 2 2.5 0 2.5-2 5-2 1.3 0 1.9.5 2.5 1"
  />
  <path
    d="M2 21c.6.5 1.2 1 2.5 1 2.5 0 2.5-2 5-2 2.6 0 2.4 2 5 2 2.5 0 2.5-2 5-2 1.3 0 1.9.5 2.5 1"
  />
</svg>

<svg
  xmlns="http://www.w3.org/2000/svg"
  width="24"
  height="24"
  viewBox="0 0 24 24"
  fill="none"
  stroke="currentColor"
  stroke-width="2"
  stroke-linecap="round"
  stroke-linejoin="round"
>
  <path d="M12 10L12 2" />
  <path d="M16 6L12 10L8 6" />
  <path d="M2 15C2.6 15.5 3.2 16 4.5 16C7 16 7 14 9.5 14C12.1 14 11.9 16 14.5 16C17 16 17 14 19.5 14C20.8 14 21.4 14.5 22 15" />
  <path d="M2 21C2.6 21.5 3.2 22 4.5 22C7 22 7 20 9.5 20C12.1 20 11.9 22 14.5 22C17 22 17 20 19.5 20C20.8 20 21.4 20.5 22 21" />
</svg>
